src/topics/icons/hacker-one.svg

<svg height="478" preserveAspectRatio="xMidYMid" viewBox="0 0 256 478" width="256" xmlns="http://www.w3.org/2000/svg"><path d="m9.13221479 5.980788c-6.05704029 3.98418204-9.13221479 9.1964272-9.13221479 15.5042974v433.8404016c0 5.502205 3.14942015 10.499739 9.45729033 15.139089 6.26272077 4.647376 13.98226167 6.963038 23.19574527 6.963038 8.806136 0 16.5266801-2.315662 23.2328682-6.963038 6.6700685-4.5942 10.0632953-9.636884 10.0632953-15.139089v-433.8022754c0-6.3459964-3.230689-11.4759694-9.7372165-15.5424236-6.5075308-3.94705922-14.3464666-5.980788-23.558947-5.980788-9.6198281 0-17.4587639 2.03372878-23.52082081 5.980788zm189.72371821 172.319134-88.296136 55.346118c-3.956089 3.701246-5.656715 9.324852-4.925295 17.01028.681254 7.610179 4.199895 14.856153 10.426497 21.692773 6.255697 6.880765 13.250841 11.193033 21.251312 13.025094 7.882078 1.786912 13.864873.811686 17.820962-2.852437l34.915521-21.776048v194.579785c0 5.502205 3.032032 10.499739 9.169338 15.139089 5.981791 4.647376 13.664209 6.963038 22.877693 6.963038s17.169808-2.315662 23.839876-6.963038c6.706188-4.63935 10.064299-9.636884 10.064299-15.139089v-261.602536c0-6.35302-3.276842-11.47597-9.739223-15.423029-6.469405-4.029331-14.508001-5.987811-24.164952-5.987811-9.619828 0-17.340372 1.95848-23.239892 5.987811z"/></svg>

<?xml version="1.0" encoding="UTF-8" standalone="no"?>
<svg width="256px" height="478px" viewBox="0 0 256 478" version="1.1" xmlns="http://www.w3.org/2000/svg" xmlns:xlink="http://www.w3.org/1999/xlink" preserveAspectRatio="xMidYMid">
    <g>
        <path d="M9.13221479,5.980788 C3.0751745,9.96497004 0,15.1772152 0,21.4850854 L0,455.325487 C0,460.827692 3.14942015,465.825226 9.45729033,470.464576 C15.7200111,475.111952 23.439552,477.427614 32.6530356,477.427614 C41.4591716,477.427614 49.1797157,475.111952 55.8859038,470.464576 C62.5559723,465.870376 65.9491991,460.827692 65.9491991,455.325487 L65.9491991,21.5232116 C65.9491991,15.1772152 62.7185101,10.0472422 56.2119826,5.980788 C49.7044518,2.03372878 41.865516,0 32.6530356,0 C23.0332075,0 15.1942717,2.03372878 9.13221479,5.980788 Z M198.855933,178.299922 L110.559797,233.64604 C106.603708,237.347286 104.903082,242.970892 105.634502,250.65632 C106.315756,258.266499 109.834397,265.512473 116.060999,272.349093 C122.316696,279.229858 129.31184,283.542126 137.312311,285.374187 C145.194389,287.161099 151.177184,286.185873 155.133273,282.52175 L190.048794,260.745702 L190.048794,455.325487 C190.048794,460.827692 193.080826,465.825226 199.218132,470.464576 C205.199923,475.111952 212.882341,477.427614 222.095825,477.427614 C231.309309,477.427614 239.265633,475.111952 245.935701,470.464576 C252.641889,465.825226 256,460.827692 256,455.325487 L256,193.722951 C256,187.369931 252.723158,182.246981 246.260777,178.299922 C239.791372,174.270591 231.752776,172.312111 222.095825,172.312111 C212.475997,172.312111 204.755453,174.270591 198.855933,178.299922 Z" fill="#000000"></path>
    </g>
</svg>
